!!!!SEGMENT: pl-wn--sd-xvi-o-276_anonim--kancjonal-zamoyskich-psalm-xlv-deus-noster-refugium-ktorym-sobie-kosciol-swiety.krn
!!!cenid: 15xx:831
!!!COM: Anonim
!!!COM-rismID: pe30004985
!!!CDT:
!!!CNT:
!!!GTL: Kancjonał Zamoyskich
!!!OTL: Psalm XLV Deus noster refugium/Którym sobie kościół święty
!!!PDT: 1558
!!!AGN:
!!!SMS-siglum: PL-Wn
!!!SMS-shelfmark: SD XVI.O.276
!!!SMS-shelfwork: G
!!!SMS-variant:
!!!SMS-altvar:
!!!NIFC-islandoraID: none
!!!URL-pdf-islandora:
!!!URL-scan: https://polona.pl/item/psalm-xlv-devs-noster-refvgivm-ktorym-sobie-kosciol-swiethy-mysl-dobra-czyni-w,MTE3MTYwMQ/3 @EN{Scan on Polona} @PL{Skany w portalu Polona}
!!!ONB-nifc: UWAGA: proszę zapisywać tylko teksty występujące bezpośrednio pod nutami
!!!NIFC-rismSourceID: 990072217
!!!NIFC-rismChildID: 990072217
!!!AIN: 2 empty 1 soprn 1 tenor
**kern	**kern	**text	**text	**kern	**kern
*part4	*part3	*part3	*part3	*part2	*part1
*staff4	*staff3	*staff3	*staff3	*staff2	*staff1
*Iempty	*Itenor	*	*	*Iempty	*Isoprn
*I"[BASS]	*I"TENOR	*	*	*I"[ALT]	*I"[CANTVS]
*mI"Basso	*mI"Tenore	*	*	*mI"Alto	*mI"Soprano
*I'B.	*I'T.	*	*	*I'A.	*I'C.
*clefF3	*clefC3	*	*	*clefC2	*clefC1
*	*mclefGv2	*	*	*	*
*k[]	*k[]	*	*	*k[]	*k[]
*G:	*G:	*	*	*G:	*G:
*M2/1	*M2/1	*	*	*M2/1	*M2/1
*met(C|)	*met(C|)	*	*	*met(C|)	*met(C|)
*	*mmet(c|)	*	*	*	*
*>[A,A,B,B]	*>[A,A,B,B]	*	*	*>[A,A,B,B]	*>[A,A,B,B]
=1-	=1-	=1-	=1-	=1-	=1-
*>A	*>A	*	*	*>A	*>A
!!LO:TX:a:t=P:problem:w źródle wszystkie caudy po środku
*	*xywh-#6:764,330,1935,939	*	*	*	*
!LO:TX:a:t=P:problem:w źródle brak partii Bass	!	!	!	!LO:TX:a:t=P:problem:w źródle brak partii Alt	!
!	!	!	!	!	!LO:TX:a:t=P:problem:w źródle brak partii Cantus
0ryy	1r	.	.	0ryy	0ryy
.	2r	.	.	.	.
!	!	!	!LO:MO:mod=Już	!	!
.	2G/	Pan	Juſz	.	.
=2-	=2-	=2-	=2-	=2-	=2-
!	!	!LO:MO:mod=Bóg	!	!	!
0ryy	1G	Bog	przy-	0ryy	0ryy
.	1c	.	-go-	.	.
=3-	=3-	=3-	=3-	=3-	=3-
0ryy	1B	u-	-dy	0ryy	0ryy
!	!	!	!LO:MO:mod=i	!	!
.	1d	-ciecz-	y	.	.
=4-	=4-	=4-	=4-	=4-	=4-
0ryy	2c/	-ką	z fra-	0ryy	0ryy
.	2B/	ra-	.	.	.
.	1A	-tun-	-ſun-	.	.
=5-	=5-	=5-	=5-	=5-	=5-
!	!	!LO:MO:mod=-kiem,	!	!	!
0ryy	1G	-kiem/	-kiem	0ryy	0ryy
.	2r	.	.	.	.
*	*custos d	*	*	*	*
.	2G/	Pan	Na-	.	.
!	!LO:LB:g=original	!	!	!	!
=6-	=6-	=6-	=6-	=6-	=6-
*	*xywh-#6:764,1240,1902,646	*	*	*	*
!	!	!LO:MO:mod=Bóg	!LO:MO:mod=-mniej	!	!
0ryy	1.d	Bog	-mniey	0ryy	0ryy
.	2d\	o-	nas	.	.
=7-	=7-	=7-	=7-	=7-	=7-
0ryy	1c	-bro-	nie	0ryy	0ryy
.	1B	-ną	u-	.	.
=8-	=8-	=8-	=8-	=8-	=8-
0ryy	0A	na-	-ſtra-	0ryy	0ryy
=9-	=9-	=9-	=9-	=9-	=9-
!	!LO:TX:a:t=P:problem:podwójna kreska pseudotaktowa z repetycją	!	!	!	!
!	!	!LO:MO:mod=-szą.	!LO:MO:mod=-szą.	!	!
0ryy	0G	-ſſą.	-ſſą.	0ryy	0ryy
=10:|!|:	=10:|!|:	=10:|!|:	=10:|!|:	=10:|!|:	=10:|!|:
*>B	*>B	*	*	*>B	*>B
0ryy	1r	.	.	0ryy	0ryy
.	2r	.	.	.	.
.	2G/	Choć	.	.	.
=11-	=11-	=11-	=11-	=11-	=11-
0ryy	1c	zie-	.	0ryy	0ryy
.	1B	-mia	.	.	.
=12-	=12-	=12-	=12-	=12-	=12-
*	*custos d	*	*	*	*
0ryy	1c	z mie-	.	0ryy	0ryy
!	!LO:LB:g=original	!	!	!	!
*	*xywh-#6:710,1843,2012,579	*	*	*	*
.	1d	-ſca	.	.	.
=13-	=13-	=13-	=13-	=13-	=13-
0ryy	0e	ſtą-	.	0ryy	0ryy
=14-	=14-	=14-	=14-	=14-	=14-
!	!	!LO:MO:mod=-pi,	!	!	!
0ryy	1d	-pi/	.	0ryy	0ryy
.	2r	.	.	.	.
.	2d\	Mo-	.	.	.
=15-	=15-	=15-	=15-	=15-	=15-
0ryy	1e	-rze	.	0ryy	0ryy
!	!	!LO:MO:mod=gó-	!	!	!
.	1c	go-	.	.	.
=16-	=16-	=16-	=16-	=16-	=16-
0ryy	1.d	.	.	0ryy	0ryy
.	2c\	-ry	.	.	.
=17-	=17-	=17-	=17-	=17-	=17-
0ryy	1B	za-	.	0ryy	0ryy
.	1A	-to-	.	.	.
=18-	=18-	=18-	=18-	=18-	=18-
*	*custos G	*	*	*	*
!	!	!LO:MO:mod=-pi,	!	!	!
0ryy	1G	-pi/	.	0ryy	0ryy
!	!LO:LB:g=original	!	!	!	!
*	*xywh-#6:695,2404,2007,584	*	*	*	*
.	2r	.	.	.	.
.	2G/	Pan	.	.	.
=19-	=19-	=19-	=19-	=19-	=19-
!	!	!LO:MO:mod=Bóg	!	!	!
0ryy	1c	Bog	.	0ryy	0ryy
.	1d	o-	.	.	.
=20-	=20-	=20-	=20-	=20-	=20-
0ryy	1B	-bro-	.	0ryy	0ryy
.	1c	-ną	.	.	.
=21-	=21-	=21-	=21-	=21-	=21-
0ryy	0A	na-	.	0ryy	0ryy
=22-	=22-	=22-	=22-	=22-	=22-
!	!	!LO:MO:mod=-szą.	!	!	!
0ryy	0Gl/	-ſſą.	.	0ryy	0ryy
==	==	==	==	==	==
*-	*-	*-	*-	*-	*-
!!!system-decoration: [(s1,s2,s3,s4)]
!!!RDF**kern: > = above
!!!RDF**kern: < = below
!!LO:MO:ori
!!!RDF**kern: | = vertical stroke
!!!RDF**kern: N = linked
!!!RDF**kern: i = editorial accidental
!!!RDF**kern: l = terminal long
!!LO:MO:end
!!!filter-modern: | autostem -r | shed -e "s/TX(.*):t=P:/tx$1:t=P:/LG" | shed -e "s/-//B" | shed -e "s/^custos:/Xcustos:/I" | humtr -p | modori -m
!!!ENC: Mateusz Solarz
!!!END: 2022-04-28
!!!EED: Wojciech Jakubiak-Danek
!!!EEV: 2022-05-10
!!!ENC-modern: Leszek Kubiak
!!!END-modern: 2022-07-25
!!!IIIF: https://polona.pl/iiif/item/MTE3MTYwMQ/manifest.json
!!!ENC-iiif: Emilia Ziętek
!!!END-iiif: 2022-09-03
!!!YEC: Copyright 2022 Narodowy Instytut Fryderyka Chopina (https://polishscores.org)
!!!YEM: License CC-BY-4.0 (https://creativecommons.org/licenses/by/4.0)
